svg/u1f471_1f3fb_200d_2642.svg

<svg viewBox="0 0 128 128" xmlns="http://www.w3.org/2000/svg">
  <g id="shirt">
    <linearGradient id="SVGID_1_" gradientUnits="userSpaceOnUse" x1="64" x2="64" y1="101.0764" y2="122.7043">
      <stop offset="0" stop-color="#00BFA5"/>
      <stop offset="0.7047" stop-color="#00B29A"/>
      <stop offset="1" stop-color="#00AB94"/>
    </linearGradient>
    <path d="M64.13,94.68c-0.04,0-0.09,0-0.13,0c-25.49,0.03-51.13,7.5-51.13,25.28v4.07h1.5h1.5h96.27 h1.5h1.5v-4.07C115.13,103.2,89.73,94.68,64.13,94.68z" fill="url(#SVGID_1_)"/>
  </g>
  <g id="neck">
    <path d="M64,90.08h-9.08v9.98c0,4.51,3.7,8.17,8.26,8.17h1.65c4.56,0,8.26-3.66,8.26-8.17v-9.98H64z" fill="#EDC391"/>
  </g>
  <g id="face">
    <g id="ears">
      <path d="M91.33,50.43h-7.37H44.04h-7.37c-5.89,0-10.71,5.14-10.71,11.41s4.82,11.41,10.71,11.41h7.37h39.91 h7.37c5.89,0,10.71-5.14,10.71-11.41S97.22,50.43,91.33,50.43z" fill="#EDC391"/>
    </g>
    <g id="head">
      <path d="M64,10.07L64,10.07L64,10.07c-17.4,0-33.52,18.61-33.52,45.39c0,26.64,16.61,39.81,33.52,39.81 S97.52,82.1,97.52,55.46C97.52,28.68,81.4,10.07,64,10.07z" fill="#F9DDBD"/>
    </g>
    <g id="eyebrows">
      <path d="M39.82,50.73c3.18-4.51,10.66-4.66,14.41-0.82c0.65,0.67,1.34,1.54,0.85,2.5 c-0.54,1.07-1.65,0.9-2.56,0.53c-2.43-0.98-4.94-1.42-7.55-0.89c-1.13,0.23-2.1,0.7-3.17,1.08 C40.36,53.62,38.89,52.12,39.82,50.73z" fill="#454140"/>
      <path d="M86.27,53.13c-2.23-0.97-4.49-1.53-6.95-1.25c-1.12,0.13-2.22,0.42-3.26,0.83 c-0.83,0.33-1.72,0.86-2.58,0.27c-2.45-1.69,1.89-4.44,3.17-4.99c2.76-1.2,6.05-1.08,8.72,0.31c1.06,0.55,2.21,1.35,2.84,2.4 C89,52.02,87.82,53.76,86.27,53.13z" fill="#454140"/>
    </g>
    <g id="eyes">
      <ellipse cx="47.37" cy="58.81" fill="#312D2D" rx="4.93" ry="5.1"/>
      <ellipse cx="80.63" cy="58.81" fill="#312D2D" rx="4.93" ry="5.1"/>
    </g>
    <path id="nose" d="M67.86,68.06c-0.11-0.04-0.21-0.07-0.32-0.08h-7.07c-0.11,0.01-0.22,0.04-0.32,0.08 c-0.64,0.26-0.99,0.92-0.69,1.63c0.3,0.71,1.71,2.69,4.55,2.69c2.84,0,4.25-1.99,4.55-2.69C68.85,68.98,68.5,68.32,67.86,68.06z" fill="#DBA689"/>
    <path id="mouth" d="M72.42,76.14c-3.19,1.89-13.63,1.89-16.81,0c-1.83-1.09-3.7,0.58-2.94,2.24 c0.75,1.63,6.45,5.42,11.37,5.42s10.55-3.79,11.3-5.42C76.09,76.72,74.25,75.05,72.42,76.14z" fill="#444444"/>
  </g>
  <g id="hairGroup">
    <g id="hair_x5F_blond">
      <path d="M64,4.03L64,4.03c-0.01,0-0.01,0-0.02,0s-0.01,0-0.02,0v0C18.53,4.27,27.84,56.17,27.84,56.17 s2.04,5.35,2.97,7.71c0.13,0.34,0.63,0.3,0.71-0.05c0.97-4.34,4.46-19.73,6.22-24.4c1.04-2.76,3.9-4.36,6.79-3.83 c4.45,0.81,11.55,1.81,19.37,1.81c0.03,0,0.06,0,0.08,0c0.03,0,0.06,0,0.08,0c7.83,0,14.92-1,19.37-1.81 c2.9-0.53,5.76,1.08,6.79,3.83c1.75,4.66,5.22,19.96,6.2,24.36c0.08,0.36,0.58,0.39,0.71,0.05l2.98-7.67 C100.13,56.17,109.44,4.27,64,4.03z" fill="#FFE13B"/>
    </g>
    <radialGradient id="hairHighlights_x5F_blond_1_" cx="63.5149" cy="41.6941" gradientUnits="userSpaceOnUse" r="36.511">
      <stop offset="0.6985" stop-color="#FFEE58" stop-opacity="0"/>
      <stop offset="1" stop-color="#FFEE58"/>
    </radialGradient>
    <path id="hairHighlights_x5F_blond" d="M100.13,56.17c0,0,9.31-51.9-36.13-52.14 v0c-0.01,0-0.01,0-0.02,0h0c-0.01,0-0.01,0-0.02,0v0c-0.71,0-1.4,0.02-2.08,0.05c-1.35,0.06-2.66,0.16-3.91,0.31 c-0.01,0-0.03,0-0.04,0c-0.09,0.01-0.17,0.03-0.26,0.04C19.42,9.24,27.84,56.17,27.84,56.17l2.98,7.68 c0.13,0.34,0.62,0.31,0.7-0.05c0.98-4.38,4.46-19.71,6.22-24.37c1.04-2.76,3.9-4.36,6.79-3.83c4.45,0.81,11.55,1.81,19.37,1.81 c0.03,0,0.06,0,0.08,0c0.03,0,0.06,0,0.08,0c7.83,0,14.92-1,19.37-1.81c2.9-0.53,5.76,1.08,6.79,3.83 c1.76,4.68,5.25,20.1,6.22,24.42c0.08,0.35,0.57,0.39,0.7,0.05C98.08,61.54,100.13,56.17,100.13,56.17z" fill="url(#hairHighlights_x5F_blond_1_)"/>
  </g>
</svg>

<svg viewBox="0 0 128 128" xmlns="http://www.w3.org/2000/svg">
  <defs>
    <linearGradient id="SVGID_1_" gradientUnits="userSpaceOnUse" x1="64" x2="64" y1="101.0764" y2="122.7043">
      <stop offset="0" stop-color="#00BFA5"/>
      <stop offset="0.7047" stop-color="#00B29A"/>
      <stop offset="1" stop-color="#00AB94"/>
    </linearGradient>
    <radialGradient id="hairHighlights_x5F_blond_1_" cx="63.5149" cy="41.6941" gradientUnits="userSpaceOnUse" r="36.511">
      <stop offset="0.6985" stop-color="#FFEE58" stop-opacity="0"/>
      <stop offset="1" stop-color="#FFEE58"/>
    </radialGradient>
  </defs>
  <path d="M64.13,94.68 C64.09,94.68 64.04,94.68 64,94.68 C38.51,94.71 12.87,102.18 12.87,119.96 L12.87,124.03 L14.37,124.03 L15.87,124.03 L112.14,124.03 L113.64,124.03 L115.14,124.03 L115.14,119.96 C115.13,103.2 89.73,94.68 64.13,94.68 Z" fill="url(#SVGID_1_)"/>
  <path d="M64,90.08 L54.92,90.08 L54.92,100.06 C54.92,104.57 58.62,108.23 63.18,108.23 L64.83,108.23 C69.39,108.23 73.09,104.57 73.09,100.06 L73.09,90.08 L64,90.08 Z" fill="#EDC391"/>
  <path d="M91.33,50.43 L83.96,50.43 L44.04,50.43 L36.67,50.43 C30.78,50.43 25.96,55.57 25.96,61.84 C25.96,68.11 30.78,73.25 36.67,73.25 L44.04,73.25 L83.95,73.25 L91.32,73.25 C97.21,73.25 102.03,68.11 102.03,61.84 C102.03,55.57 97.22,50.43 91.33,50.43 Z" fill="#EDC391"/>
  <path d="M64,10.07 L64,10.07 L64,10.07 C46.6,10.07 30.48,28.68 30.48,55.46 C30.48,82.1 47.09,95.27 64,95.27 C80.91,95.27 97.52,82.1 97.52,55.46 C97.52,28.68 81.4,10.07 64,10.07 Z" fill="#F9DDBD"/>
  <path d="M39.82,50.73 C43,46.22 50.48,46.07 54.23,49.91 C54.88,50.58 55.57,51.45 55.08,52.41 C54.54,53.48 53.43,53.31 52.52,52.94 C50.09,51.96 47.58,51.52 44.97,52.05 C43.84,52.28 42.87,52.75 41.8,53.13 C40.36,53.62 38.89,52.12 39.82,50.73 Z" fill="#454140"/>
  <path d="M86.27,53.13 C84.04,52.16 81.78,51.6 79.32,51.88 C78.2,52.01 77.1,52.3 76.06,52.71 C75.23,53.04 74.34,53.57 73.48,52.98 C71.03,51.29 75.37,48.54 76.65,47.99 C79.41,46.79 82.7,46.91 85.37,48.3 C86.43,48.85 87.58,49.65 88.21,50.7 C89,52.02 87.82,53.76 86.27,53.13 Z" fill="#454140"/>
  <path d="M52.3,58.81 A4.93 5.1 0 1 1 42.44,58.81 A4.93 5.1 0 1 1 52.3,58.81 Z" fill="#312D2D"/>
  <path d="M85.56,58.81 A4.93 5.1 0 1 1 75.7,58.81 A4.93 5.1 0 1 1 85.56,58.81 Z" fill="#312D2D"/>
  <path id="nose" d="M67.86,68.06 C67.75,68.02 67.65,67.99 67.54,67.98 L60.47,67.98 C60.36,67.99 60.25,68.02 60.15,68.06 C59.51,68.32 59.16,68.98 59.46,69.69 C59.76,70.4 61.17,72.38 64.01,72.38 C66.85,72.38 68.26,70.39 68.56,69.69 C68.85,68.98 68.5,68.32 67.86,68.06 Z" fill="#DBA689"/>
  <path id="mouth" d="M72.42,76.14 C69.23,78.03 58.79,78.03 55.61,76.14 C53.78,75.05 51.91,76.72 52.67,78.38 C53.42,80.01 59.12,83.8 64.04,83.8 C68.96,83.8 74.59,80.01 75.34,78.38 C76.09,76.72 74.25,75.05 72.42,76.14 Z" fill="#444444"/>
  <path d="M64,4.03 L64,4.03 C63.99,4.03 63.99,4.03 63.98,4.03 C63.97,4.03 63.97,4.03 63.96,4.03 L63.96,4.03 C18.53,4.27 27.84,56.17 27.84,56.17 C27.84,56.17 29.88,61.52 30.81,63.88 C30.94,64.22 31.44,64.18 31.52,63.83 C32.49,59.49 35.98,44.1 37.74,39.43 C38.78,36.67 41.64,35.07 44.53,35.6 C48.98,36.41 56.08,37.41 63.9,37.41 C63.93,37.41 63.96,37.41 63.98,37.41 C64.01,37.41 64.04,37.41 64.06,37.41 C71.89,37.41 78.98,36.41 83.43,35.6 C86.33,35.07 89.19,36.68 90.22,39.43 C91.97,44.09 95.44,59.39 96.42,63.79 C96.5,64.15 97,64.18 97.13,63.84 L100.11,56.17 C100.13,56.17 109.44,4.27 64,4.03 Z" fill="#FFE13B"/>
  <path id="hairHighlights_x5F_blond" d="M100.13,56.17 C100.13,56.17 109.44,4.27 64,4.03 L64,4.03 C63.99,4.03 63.99,4.03 63.98,4.03 L63.98,4.03 C63.97,4.03 63.97,4.03 63.96,4.03 L63.96,4.03 C63.25,4.03 62.56,4.05 61.88,4.08 C60.53,4.14 59.22,4.24 57.97,4.39 C57.96,4.39 57.94,4.39 57.93,4.39 C57.84,4.4 57.76,4.42 57.67,4.43 C19.42,9.24 27.84,56.17 27.84,56.17 L30.82,63.85 C30.95,64.19 31.44,64.16 31.52,63.8 C32.5,59.42 35.98,44.09 37.74,39.43 C38.78,36.67 41.64,35.07 44.53,35.6 C48.98,36.41 56.08,37.41 63.9,37.41 C63.93,37.41 63.96,37.41 63.98,37.41 C64.01,37.41 64.04,37.41 64.06,37.41 C71.89,37.41 78.98,36.41 83.43,35.6 C86.33,35.07 89.19,36.68 90.22,39.43 C91.98,44.11 95.47,59.53 96.44,63.85 C96.52,64.2 97.01,64.24 97.14,63.9 C98.08,61.54 100.13,56.17 100.13,56.17 Z" fill="url(#hairHighlights_x5F_blond_1_)"/>
</svg>
